!!!OTL@@FR: A la claire fontaine
!!!OTL@EN: By the Clear Running Fountain
!!!ARE: Canada
!!!ONB: French-Canadian River Song
!!!AMD: Pentatonic
**kern
=1-
*clefG2
*k[b-]
*M2/4
*MM54
{4f/
8f/L
8a/J
=2
8a/L
8g/
8a/
8g/J
=3
4f/
8f/L
8a/J
=4
8a/L
8g/J
4a/}
=5
{4a/
8a/L
8g/J
=6
8f/L
8a/
8cc/
8a/J}
=7
{4cc\
8cc\L
8a\J
=8
8f/L
8a/J
4g/}
=9||
!! Refrain
{4c/
8f/L
8a/J
=10
8a/L
16g/L
16f/JJ
8a/L
8f/J}
=11
{4a/
8a/L
16g/L
16f/JJ
=12
8a/L
8g/J
4f/}
==
*-
